resources/haticons/SVG/text_snippet.svg

<!-- Generated by IcoMoon.io -->
<svg version="1.1" xmlns="http://www.w3.org/2000/svg" width="24" height="24" viewBox="0 0 24 24">
<title>text_snippet</title>
<path d="M20.391 8.391l-4.828-4.828q-0.563-0.563-1.406-0.563h-9.141q-0.844 0-1.43 0.586t-0.586 1.43v13.969q0 0.844 0.586 1.43t1.43 0.586h13.969q0.844 0 1.43-0.586t0.586-1.43v-9.141q0-0.844-0.609-1.453zM6.984 6.984h7.031v2.016h-7.031v-2.016zM17.016 17.016h-10.031v-2.016h10.031v2.016zM17.016 12.984h-10.031v-1.969h10.031v1.969z"></path>
</svg>

<svg xmlns="http://www.w3.org/2000/svg" width="24" height="24"><path d="M20.391 8.391l-4.828-4.828Q15 3 14.157 3H5.016q-.844 0-1.43.586T3 5.016v13.969q0 .844.586 1.43t1.43.586h13.969q.844 0 1.43-.586t.586-1.43V9.844q0-.844-.609-1.453zM6.984 6.984h7.031V9H6.984V6.984zm10.032 10.032H6.985V15h10.031v2.016zm0-4.032H6.985v-1.969h10.031v1.969z"/></svg>
